assets/icon-contact.svg

<svg width="27" height="32" viewBox="0 0 27 32" fill="none" xmlns="http://www.w3.org/2000/svg">
<path d="M20.1948 20.1969L20.4897 20.6675L20.8715 20.2641C22.2774 18.7787 23.2171 16.914 23.5746 14.9003C23.9322 12.8867 23.6918 10.8124 22.8833 8.93385C22.0747 7.05532 20.7334 5.45489 19.0251 4.33039C17.3169 3.20588 15.3166 2.60659 13.2714 2.60659C11.2263 2.60659 9.22593 3.20588 7.51767 4.33039C5.80942 5.45489 4.46812 7.05532 3.65956 8.93385C2.85101 10.8124 2.61064 12.8867 2.96817 14.9003C3.3257 16.914 4.26545 18.7787 5.67128 20.2641L6.05307 20.6675L6.34801 20.1969C7.0829 19.0242 8.1038 18.0575 9.31483 17.3877C10.5258 16.7179 11.8873 16.3669 13.2712 16.3676L13.2716 16.3676C14.6556 16.3669 16.017 16.7179 17.228 17.3877C18.439 18.0575 19.4599 19.0242 20.1948 20.1969ZM7.70074 21.8959L7.57099 22.1699L7.78534 22.3841L12.9674 27.5647L13.2714 27.8687L13.5755 27.5647L18.7575 22.3841L18.9718 22.1699L18.8421 21.8959C18.3425 20.8412 17.5538 19.95 16.5676 19.3259C15.5815 18.7018 14.4384 18.3705 13.2714 18.3705C12.1044 18.3705 10.9613 18.7018 9.97516 19.3259C8.98901 19.95 8.2003 20.8412 7.70074 21.8959ZM13.2714 30.7077L4.45285 21.8892C2.70873 20.145 1.52097 17.9229 1.03978 15.5037C0.558585 13.0845 0.805567 10.577 1.74949 8.29815C2.69341 6.01934 4.29189 4.0716 6.34277 2.70125C8.39365 1.3309 10.8048 0.599477 13.2714 0.599477C15.738 0.599477 18.1492 1.3309 20.2 2.70125C22.2509 4.0716 23.8494 6.01934 24.7933 8.29815C25.7372 10.577 25.9842 13.0845 25.503 15.5037C25.0218 17.9229 23.8341 20.145 22.09 21.8892L13.2714 30.7077ZM13.2714 12.0672C13.7656 12.0672 14.2396 11.8708 14.5891 11.5214C14.9386 11.1719 15.1349 10.6979 15.1349 10.2037C15.1349 9.70942 14.9386 9.23543 14.5891 8.88595C14.2396 8.53648 13.7656 8.34014 13.2714 8.34014C12.7772 8.34014 12.3032 8.53648 11.9537 8.88595C11.6042 9.23543 11.4079 9.70942 11.4079 10.2037C11.4079 10.6979 11.6042 11.1719 11.9537 11.5214C12.3032 11.8708 12.7772 12.0672 13.2714 12.0672ZM13.2714 14.074C12.2449 14.074 11.2605 13.6663 10.5346 12.9404C9.80879 12.2146 9.40102 11.2302 9.40102 10.2037C9.40102 9.17717 9.80879 8.19272 10.5346 7.46688C11.2605 6.74105 12.2449 6.33327 13.2714 6.33327C14.2979 6.33327 15.2823 6.74105 16.0082 7.46688C16.734 8.19272 17.1418 9.17717 17.1418 10.2037C17.1418 11.2302 16.734 12.2146 16.0082 12.9404C15.2823 13.6663 14.2979 14.074 13.2714 14.074Z" stroke="black" stroke-width="0.860086"/>
</svg>

<svg width="27" height="32" fill="none" xmlns="http://www.w3.org/2000/svg"><path d="m20.195 20.197.295.47.382-.403a10.464 10.464 0 1 0-15.2 0l.381.404.295-.471a8.165 8.165 0 0 1 6.923-3.83 8.166 8.166 0 0 1 6.924 3.83ZM7.7 21.896l-.13.274.214.214 5.182 5.18.304.305.304-.304 5.183-5.18.214-.215-.13-.274a6.164 6.164 0 0 0-11.141 0Zm5.57 8.812-8.818-8.819a12.471 12.471 0 1 1 17.637 0l-8.819 8.819Zm0-18.64a1.864 1.864 0 1 0 0-3.729 1.864 1.864 0 0 0 0 3.728Zm0 2.006a3.87 3.87 0 1 1 0-7.74 3.87 3.87 0 0 1 0 7.74Z" stroke="#000" stroke-width=".86"/></svg>
